src/assets/icons/home-outline.svg

<svg width="28" height="29" viewBox="0 0 28 29" fill="none" xmlns="http://www.w3.org/2000/svg">
<mask id="mask0_6_377" style="mask-type:alpha" maskUnits="userSpaceOnUse" x="0" y="0" width="28" height="29">
<rect y="0.768066" width="28" height="28" fill="#C4C4C4"/>
</mask>
<g mask="url(#mask0_6_377)">
<path d="M26.0286 9.57055L14.2417 3.20638C13.9816 3.06638 13.6701 3.06638 13.4099 3.20638L1.62539 9.57055C1.20073 9.80038 1.04206 10.3312 1.2719 10.757C1.4294 11.0487 1.73156 11.2155 2.0419 11.2155C2.1819 11.2155 2.32539 11.1805 2.45723 11.1105L3.40806 10.5972L5.30856 24.029C5.55823 25.4465 6.83456 26.4347 8.40956 26.4347H19.2386C20.8159 26.4347 22.0911 25.4454 22.3454 23.9999L24.2424 10.5949L25.1967 11.1105C25.6214 11.3357 26.1534 11.1805 26.3832 10.7559C26.6119 10.3324 26.4532 9.80155 26.0286 9.57055ZM20.6176 23.7257C20.4927 24.4327 19.7974 24.6847 19.2409 24.6847H8.41189C7.85189 24.6847 7.15773 24.4327 7.03756 23.7537L5.05189 9.71054L13.8252 4.97155L22.6009 9.70821L20.6176 23.7257Z" fill="black"/>
<path d="M9.4152 14.9535C9.4152 17.3848 11.3927 19.3635 13.8252 19.3635C16.2577 19.3635 18.2352 17.3848 18.2352 14.9535C18.2352 12.5222 16.2577 10.5435 13.8252 10.5435C11.3927 10.5435 9.4152 12.5222 9.4152 14.9535ZM16.4852 14.9535C16.4852 16.4212 15.2929 17.6135 13.8252 17.6135C12.3575 17.6135 11.1652 16.4212 11.1652 14.9535C11.1652 13.4858 12.3575 12.2935 13.8252 12.2935C15.2929 12.2935 16.4852 13.4858 16.4852 14.9535Z" fill="black"/>
</g>
</svg>

<svg width="28" height="29" fill="none" xmlns="http://www.w3.org/2000/svg"><mask id="a" style="mask-type:alpha" maskUnits="userSpaceOnUse" x="0" y="0" width="28" height="29"><path fill="#C4C4C4" d="M0 .768h28v28H0z"/></mask><g mask="url(#a)" fill="#000"><path d="M26.029 9.57 14.242 3.207a.876.876 0 0 0-.832 0L1.625 9.571a.876.876 0 0 0 .832 1.54l.951-.514 1.9 13.432c.25 1.418 1.527 2.406 3.102 2.406h10.829c1.577 0 2.852-.99 3.106-2.435l1.897-13.405.955.515a.88.88 0 0 0 1.186-.354.877.877 0 0 0-.354-1.185zm-5.411 14.156c-.125.707-.82.959-1.377.959H8.41c-.56 0-1.253-.252-1.373-.931L5.052 9.71l8.773-4.74 8.776 4.737-1.983 14.018z"/><path d="M9.415 14.954a4.415 4.415 0 0 0 4.41 4.41 4.415 4.415 0 0 0 4.41-4.41 4.415 4.415 0 0 0-4.41-4.41 4.415 4.415 0 0 0-4.41 4.41zm7.07 0a2.662 2.662 0 0 1-2.66 2.66 2.662 2.662 0 0 1-2.66-2.66 2.662 2.662 0 0 1 2.66-2.66 2.662 2.662 0 0 1 2.66 2.66z"/></g></svg>
